X:1
T:Altes Minnelied
T:Satz v. Friedrich Silcher
T:Altes Minnelied
T:Ich fahr dahin
T:CPDL - Creative Commons Attribution Non Commercial 3.0
C:Friedrich Silcher
Z:CPDL - Creative Commons Attribution Non Commercial 3.0
%%score [ ( 1 2 ) ( 3 4 ) ]
L:1/8
Q:1/4=90
M:6/4
K:C
V:1 treble-8 nm="Tenor"
V:2 treble-8 
V:3 bass nm="Bass"
V:4 bass 
V:1
"^Etwas langsam" G2 | c4 c2 G4 f2 | e4 d2 c4 c2 | B4 c2 d4 G2 | B4 A2 G4 G2 | c4 d2 e4 d2 | %6
w: Ich|fahr' da- hin, wann|es muss sein, ich|scheid' mich von der|Lieb- sten mein; zu-|letzt lass ich ihr's|
 f4 e2 d4 c2 | e4 f2 g4 a2 | (g2 e2) c2 !fermata!d6 | c6 B4 c2 | f6 d6 | e6 d6 | c6- !fermata!c4 |] %13
w: Her- ze mein, die-|weil ich leb', so|soll _ es sein.|Ich fahr' da-|hin, ich|fahr' da-|hin. _|
V:2
 G2 | G4 G2 G4 c2 | c4 B2 c4 G2 | G4 G2 G4 G2 | G4 ^F2 G4 G2 | G4 G2 c4 B2 | d4 c2 B4 c2 | %7
 c4 B2 c4 c2 | c4 c2 B6 | G6 G4 G2 | c6 G6 | (G4 A2) B6 | G6- G4 |] %13
V:3
 G,2 | E,4 E,2 D,4 F,2 | G,4 F,2 E,4 G,2 | G,4 G,2 G,4 E,2 | D,4 D,2 B,,4 G,2 | G,4 G,2 G,4 G,2 | %6
 G,4 G,2 G,4 G,2 | G,4 G,2 G,4 F,2 | G,4 ^F,2 !fermata!G,6 | E,6 =F,4 E,2 | F,6 F,6 | %11
 (E,4 F,2) (G,4 F,2) | E,6- !fermata!E,4 |] %13
V:4
 G,2 | C,4 C,2 B,,4 A,,2 | G,,4 G,,2 C,4 E,2 | D,4 E,2 B,,4 C,2 | D,4 D,2 G,,4 G,2 | %5
 E,4 B,,2 C,4 G,,2 | B,,4 C,2 G,,4 E,2 | C,4 D,2 E,4 F,2 | (E,2 C,2) A,,2 G,,6 | C,6 D,4 C,2 | %10
 A,,6 B,,6 | C,6 G,,6 | C,6- C,4 |] %13

